X:988
T:Lerwick Waltz, The
C:Joe Buchanan's Scottish Tome - Page 572.0
I:572 0
Z:Carl Allison
R:Waltz
L:1/4
M:3/4
K:Bb
P:A
S "Bb"d3 | "F"B2 "Bb"F | "Bbdim"=E2 "Bb"F | "A"A2 G | "Bb"F3 | "F7"d3 | "Cm"e3- | "G"e3 "Cm" |
"Cm"e3 | "G7"=B3 | d2 c | "Cm"G3 | "F7"A3 | "Cm"G2 "F7"A | "Bbdim"G3 | "D"F3  "Bb"|
"Bb"d3 | "F"B2 "Bb"F | "Bbdim"=E2 "Bb"F | "A"G2 "A+"F | "Bb"d3 | "D"f3 | "Cm"e3- | e3 |
"Eb"G ^F G | "E7"B "C7"c ^c | "F"d2 "Bb"F | "C7"e2 d | "C7"g3 | "F7"A3 | "Bb"B3- | "Bb"B2" F7" !fine!|]
P:B
F | "Bb"d z f | "D"f "Bb"z "(Eb)"g | "D"f2 "Bb"B | "Bb"F =E F | "D"f d "Bb"B | "C/F7"A3- | "F7"A3 |
"Cm"c2 =B | "Cm"d2 c | "Eb"B2 A | "F7"A3 | "F76"G2 F | "Bb"=E2 A | "E7"G3 | "F"F3"G  A" |
"Bb"d z f | "D"f "Bb"z "(Eb)"g | "D"f2 "Bb"B | "Bb"e3 | "Bb"f =e f | "D"b "Bb7"_a | "Eb"g3- | "Db Eb"g3 |
"Eb"G ^F G | "Cm"g e c | "D"F "Bb"=E F | "Bb"f d B | "C7"G3 | "F7"A3 | "Bb"B3- | "Bb/F7"B3 S |]
P:C
[K:Eb] "Eb"G3 | "Gb"c3 | "G7"B3- | "Eb"B3 | "Cm"e3 | "A"^c3 | "F/Bb"d3 | "Bb"d3 |
"Fm"c3 | "Bb"d3 | "Fm"c3- | "Ab/Fm"c3 | "Bb"F =E F | "D"B2 "Bb7"A | "Eb"G3 | "Bb C D"G3 |
"Eb"G3 | "Gb"c3 | "Gb/Eb"B3- | "Eb"B3 | "Eb"g3 | "Bb"g2 "G7"f | "Cm"e3- | "G/Eb7"e3 |
"Ab/Fm"f2 "   A#/F7"e | "D7"d c d | "Eb"e2 G | "G9"d2 "Fm"c | "Bb7"B2 A | "F7"C2 "Bb7"D | "Eb/Bb/G"E3 | "Eb/F7"E3 S|]

